dist/intermediate-svg/repair.svg

<?xml version="1.0" encoding="utf-8"?><svg width="24" height="23.23" fill="none" xmlns="http://www.w3.org/2000/svg" viewBox="0 0 31 30"><circle cx="15.5" cy="15" r="14.5" stroke="#BABABA"/><path d="M23.1441 12.9597C22.5346 14.3142 21.3156 15.3978 19.8257 15.6009C19.1484 15.7364 18.4712 15.6686 17.8617 15.4654L10.5475 22.7796C10.2767 23.0505 9.87031 23.0505 9.59942 22.7796L7.70317 20.8833C7.43228 20.6124 7.43228 20.2061 7.70317 19.9352L14.9496 12.6888C14.7464 12.0793 14.6787 11.3343 14.8141 10.6571C15.0173 9.16717 16.1009 7.94813 17.4554 7.33862C18.1326 7.06772 18.7421 7 19.3516 7C19.6225 7 19.758 7.33865 19.5548 7.54182L17.9294 9.1672C17.8617 9.23493 17.794 9.37037 17.8617 9.50582L18.4035 11.8084C18.4035 11.9438 18.5389 12.0115 18.6744 12.0793L20.977 12.6211C21.1124 12.6211 21.1802 12.6211 21.3156 12.5534L22.941 10.928C23.1441 10.7248 23.4827 10.8602 23.4827 11.1311C23.5505 11.6729 23.415 12.2825 23.1441 12.9597Z" fill="#333"/></svg>

<?xml version="1.0" encoding="utf-8"?><svg width="24" height="23.23" fill="none" xmlns="http://www.w3.org/2000/svg" viewBox="0 0 31 30"><circle cx="15.5" cy="15" r="14.5" stroke="#BABABA"/><path d="M23.144 12.96c-.61 1.354-1.828 2.438-3.318 2.64a3.834 3.834 0 01-1.964-.135l-7.314 7.315a.655.655 0 01-.949 0l-1.896-1.897a.655.655 0 010-.948l7.247-7.246a4.1 4.1 0 01-.136-2.032c.203-1.49 1.287-2.709 2.641-3.318.678-.271 1.287-.339 1.897-.339.27 0 .406.339.203.542l-1.626 1.625c-.067.068-.135.203-.067.339l.542 2.302c0 .136.135.204.27.271l2.303.542c.135 0 .203 0 .339-.068l1.625-1.625c.203-.203.542-.068.542.203.067.542-.068 1.152-.339 1.829z" fill="#333"/></svg>
